Newaita/actions/24/debug-step-into-instruction.svg

<?xml version="1.0" encoding="UTF-8"?>
<svg xmlns="http://www.w3.org/2000/svg" xmlns:xlink="http://www.w3.org/1999/xlink" width="24pt" height="24pt" viewBox="0 0 24 24" version="1.1">
<g id="surface1">
<path style=" stroke:none;fill-rule:nonzero;fill:rgb(25.882354%,25.882354%,25.882354%);fill-opacity:1;" d="M 9.425781 7.132812 C 8.050781 7.132812 6.945312 8.019531 6.945312 9.117188 L 6.945312 11.597656 L 4.464844 13.085938 L 6.945312 14.574219 L 6.945312 17.054688 C 6.945312 18.15625 8.050781 19.039062 9.425781 19.039062 C 9.597656 19.039062 9.761719 19.027344 9.921875 19 L 9.921875 17.550781 C 9.375 17.550781 8.433594 17.109375 8.433594 16.558594 L 8.433594 13.683594 L 7.441406 13.085938 L 8.433594 12.492188 L 8.433594 9.613281 C 8.433594 9.066406 9.375 8.621094 9.921875 8.621094 L 9.921875 7.171875 C 9.761719 7.148438 9.597656 7.132812 9.425781 7.132812 Z M 9.425781 7.132812 "/>
<path style=" stroke:none;fill-rule:nonzero;fill:rgb(25.882354%,25.882354%,25.882354%);fill-opacity:1;" d="M 14.386719 7.132812 C 15.761719 7.132812 16.867188 8.019531 16.867188 9.117188 L 16.867188 11.597656 L 19.347656 13.085938 L 16.867188 14.574219 L 16.867188 17.054688 C 16.867188 18.15625 15.761719 19.039062 14.386719 19.039062 C 14.21875 19.039062 14.050781 19.027344 13.890625 19 L 13.890625 17.550781 C 14.441406 17.550781 15.40625 17.109375 15.378906 16.558594 L 15.378906 13.683594 L 16.371094 13.085938 L 15.378906 12.492188 L 15.378906 9.613281 C 15.378906 9.066406 14.441406 8.621094 13.890625 8.621094 L 13.890625 7.171875 C 14.050781 7.148438 14.21875 7.132812 14.386719 7.132812 Z M 14.386719 7.132812 "/>
<path style=" stroke:none;fill-rule:evenodd;fill:rgb(100%,43.921569%,26.274511%);fill-opacity:1;" d="M 15.378906 1.6875 C 15.378906 1.414062 15.160156 1.191406 14.882812 1.191406 L 8.929688 1.191406 C 8.554688 1.191406 8.316406 1.59375 8.496094 1.925781 L 11.472656 5.40625 C 11.785156 5.78125 12.03125 5.78125 12.34375 5.40625 L 15.320312 1.925781 C 15.359375 1.851562 15.378906 1.769531 15.378906 1.6875 Z M 15.378906 1.6875 "/>
<path style=" stroke:none;fill-rule:nonzero;fill:rgb(25.882354%,25.882354%,25.882354%);fill-opacity:1;" d="M 2.976562 1.179688 C 2.152344 1.179688 1.488281 1.84375 1.488281 2.667969 L 1.488281 21.523438 C 1.488281 22.347656 2.152344 23.011719 2.976562 23.011719 L 20.839844 23.011719 C 21.664062 23.011719 22.328125 22.347656 22.328125 21.523438 L 22.328125 2.667969 C 22.328125 1.84375 21.664062 1.179688 20.839844 1.179688 L 16.867188 1.179688 L 16.867188 5.644531 L 19.84375 5.644531 C 20.394531 5.644531 20.839844 6.085938 20.839844 6.636719 L 20.839844 20.527344 C 20.839844 21.078125 20.394531 21.523438 19.84375 21.523438 L 3.96875 21.523438 C 3.417969 21.523438 2.976562 21.078125 2.976562 20.527344 L 2.976562 6.636719 C 2.976562 6.085938 3.417969 5.644531 3.96875 5.644531 L 6.945312 5.644531 L 6.945312 1.179688 Z M 2.976562 1.179688 "/>
<path style=" stroke:none;fill-rule:nonzero;fill:rgb(100%,43.921569%,26.274511%);fill-opacity:1;" d="M 11.90625 11.101562 C 12.457031 11.101562 12.898438 11.546875 12.898438 12.09375 L 12.898438 18.046875 C 12.898438 18.597656 12.457031 19.039062 11.90625 19.039062 C 11.359375 19.039062 10.914062 18.597656 10.914062 18.046875 L 10.914062 12.09375 C 10.914062 11.546875 11.359375 11.101562 11.90625 11.101562 Z M 11.90625 11.101562 "/>
<path style=" stroke:none;fill-rule:nonzero;fill:rgb(100%,43.921569%,26.274511%);fill-opacity:1;" d="M 11.90625 7.132812 C 12.457031 7.132812 12.898438 7.578125 12.898438 8.125 C 12.898438 8.671875 12.457031 9.117188 11.90625 9.117188 C 11.359375 9.117188 10.914062 8.671875 10.914062 8.125 C 10.914062 7.578125 11.359375 7.132812 11.90625 7.132812 Z M 11.90625 7.132812 "/>
</g>
</svg>

<svg xmlns="http://www.w3.org/2000/svg" width="32" height="32" viewBox="0 0 24 24"><path d="M9.426 7.133c-1.375 0-2.48.887-2.48 1.984v2.48l-2.481 1.489 2.48 1.488v2.48c0 1.102 1.106 1.985 2.48 1.985.173 0 .337-.012.497-.039v-1.45c-.547 0-1.488-.44-1.488-.991v-2.875l-.993-.598.993-.594V9.613c0-.547.941-.992 1.488-.992v-1.45a3.403 3.403 0 0 0-.496-.038zm0 0M14.387 7.133c1.375 0 2.48.887 2.48 1.984v2.48l2.48 1.489-2.48 1.488v2.48c0 1.102-1.105 1.985-2.48 1.985-.168 0-.336-.012-.496-.039v-1.45c.55 0 1.515-.44 1.488-.991v-2.875l.992-.598-.992-.594V9.613c0-.547-.938-.992-1.488-.992v-1.45c.16-.023.328-.038.496-.038zm0 0" fill="#424242"/><path d="M15.379 1.688a.494.494 0 0 0-.496-.497H8.93a.496.496 0 0 0-.434.735l2.977 3.48c.312.375.558.375.87 0l2.977-3.48a.512.512 0 0 0 .059-.238zm0 0" fill-rule="evenodd" fill="#ff7043"/><path d="M2.977 1.18c-.825 0-1.489.664-1.489 1.488v18.855c0 .825.664 1.489 1.489 1.489H20.84c.824 0 1.488-.664 1.488-1.489V2.668c0-.824-.664-1.488-1.488-1.488h-3.973v4.465h2.977c.55 0 .996.44.996.992v13.89c0 .551-.445.996-.996.996H3.969a.992.992 0 0 1-.992-.996V6.637c0-.551.441-.992.992-.992h2.976V1.18zm0 0" fill="#424242"/><path d="M11.906 11.102c.551 0 .992.445.992.992v5.953c0 .55-.441.992-.992.992a.991.991 0 0 1-.992-.992v-5.953c0-.547.445-.992.992-.992zm0 0M11.906 7.133a.991.991 0 1 1 .002 1.982.991.991 0 0 1-.002-1.982zm0 0" fill="#ff7043"/></svg>
